assets/svg/home.svg

<svg fill="none" height="25" viewBox="0 0 24 25" width="24" xmlns="http://www.w3.org/2000/svg"><path d="m9 21.5v-7.4c0-.5601 0-.8401.10899-1.054.09588-.1882.24886-.3411.43702-.437.21391-.109.49389-.109 1.05399-.109h2.8c.5601 0 .8401 0 1.054.109.1882.0959.3411.2488.437.437.109.2139.109.4939.109 1.054v7.4m-3.9823-18.236-6.78231 5.27512c-.45337.35263-.68005.52894-.84336.74974-.14466.19558-.25243.41592-.318.65019-.07403.26445-.07403.55165-.07403 1.12605v7.2349c0 1.1201 0 1.6801.21799 2.108.19174.3763.4977.6823.87403.874.42782.218.98787.218 2.10798.218h11.6c1.1201 0 1.6802 0 2.108-.218.3763-.1917.6823-.4977.874-.874.218-.4279.218-.9879.218-2.108v-7.2349c0-.5744 0-.8616-.074-1.12605-.0656-.23427-.1734-.45461-.318-.65019-.1633-.2208-.39-.39711-.8434-.74973l-6.7823-5.27513c-.3513-.27325-.527-.40988-.721-.4624-.1711-.04634-.3515-.04634-.5226 0-.194.05252-.3697.18915-.721.4624z" stroke="#000" stroke-linecap="round" stroke-linejoin="round" stroke-width="2"/></svg>

<svg width="24" height="25" viewBox="0 0 24 25" fill="none" xmlns="http://www.w3.org/2000/svg">
<path d="M9 21.5V14.1C9 13.5399 9 13.2599 9.10899 13.046C9.20487 12.8578 9.35785 12.7049 9.54601 12.609C9.75992 12.5 10.0399 12.5 10.6 12.5H13.4C13.9601 12.5 14.2401 12.5 14.454 12.609C14.6422 12.7049 14.7951 12.8578 14.891 13.046C15 13.2599 15 13.5399 15 14.1V21.5M11.0177 3.264L4.23539 8.53912C3.78202 8.89175 3.55534 9.06806 3.39203 9.28886C3.24737 9.48444 3.1396 9.70478 3.07403 9.93905C3 10.2035 3 10.4907 3 11.0651V18.3C3 19.4201 3 19.9801 3.21799 20.408C3.40973 20.7843 3.71569 21.0903 4.09202 21.282C4.51984 21.5 5.07989 21.5 6.2 21.5H17.8C18.9201 21.5 19.4802 21.5 19.908 21.282C20.2843 21.0903 20.5903 20.7843 20.782 20.408C21 19.9801 21 19.4201 21 18.3V11.0651C21 10.4907 21 10.2035 20.926 9.93905C20.8604 9.70478 20.7526 9.48444 20.608 9.28886C20.4447 9.06806 20.218 8.89175 19.7646 8.53913L12.9823 3.264C12.631 2.99075 12.4553 2.85412 12.2613 2.8016C12.0902 2.75526 11.9098 2.75526 11.7387 2.8016C11.5447 2.85412 11.369 2.99075 11.0177 3.264Z" stroke="black" stroke-width="2" stroke-linecap="round" stroke-linejoin="round"/>
</svg>
